en/_assets/cloud-desktop/download.svg

<svg xmlns="http://www.w3.org/2000/svg" xmlns:xlink="http://www.w3.org/1999/xlink" width="12" height="12" class="yc-icon" fill="currentColor" stroke="none" aria-hidden="true"><svg viewBox="0 0 10 12" xmlns="http://www.w3.org/2000/svg"><path d="M8.96094 5.54102C9.08789 5.41406 9.08789 5.21094 8.96094 5.10938L8.45312 4.60156C8.35156 4.47461 8.14844 4.47461 8.02148 4.60156L5.63477 7.06445V0.742188C5.63477 0.589844 5.50781 0.4375 5.33008 0.4375H4.61914C4.4668 0.4375 4.31445 0.589844 4.31445 0.742188V7.06445L1.95312 4.60156C1.82617 4.47461 1.62305 4.47461 1.52148 4.60156L1.01367 5.10938C0.886719 5.21094 0.886719 5.41406 1.01367 5.54102L4.77148 9.29883C4.89844 9.42578 5.07617 9.42578 5.20312 9.29883L8.96094 5.54102ZM9.57031 10.4922H0.429688C0.251953 10.4922 0.125 10.6445 0.125 10.7969V11.5078C0.125 11.6855 0.251953 11.8125 0.429688 11.8125H9.57031C9.72266 11.8125 9.875 11.6855 9.875 11.5078V10.7969C9.875 10.6445 9.72266 10.4922 9.57031 10.4922Z"></path></svg></svg>

<svg xmlns="http://www.w3.org/2000/svg" width="12" height="12" fill="currentColor" aria-hidden="true" class="yc-icon"><svg xmlns="http://www.w3.org/2000/svg" viewBox="0 0 10 12"><path d="M8.96 5.541c.128-.127.128-.33 0-.432l-.507-.507c-.101-.127-.305-.127-.432 0L5.635 7.064V.742A.309.309 0 0 0 5.33.438h-.71a.328.328 0 0 0-.306.304v6.322l-2.36-2.462c-.128-.127-.33-.127-.433 0l-.507.507c-.127.102-.127.305 0 .432L4.77 9.299a.292.292 0 0 0 .432 0L8.961 5.54Zm.61 4.951H.43a.309.309 0 0 0-.305.305v.71c0 .178.127.306.305.306h9.14a.309.309 0 0 0 .305-.305v-.711a.328.328 0 0 0-.305-.305Z"/></svg></svg>
